tooltip-check-outline.svg

<svg fill="currentColor" viewBox="0 0 24 24"><path d="M20 2H4c-1.1 0-2 .9-2 2v12a2 2 0 0 0 2 2h4l4 4 4-4h4c1.11 0 2-.89 2-2V4a2 2 0 0 0-2-2m0 14h-4.83L12 19.17 8.83 16H4V4h16zm-9.25-2.29-3.5-3.5 1.41-1.42 2.09 2.09 4.59-4.58 1.41 1.41z"/></svg>

<svg  viewBox="0 0 24 24" fill="currentColor"><path  d="M20 2H4C2.9 2 2 2.9 2 4V16C2 17.11 2.9 18 4 18H8L12 22L16 18H20C21.11 18 22 17.11 22 16V4C22 2.9 21.11 2 20 2M20 16H15.17L12 19.17L8.83 16H4V4H20V16M10.75 13.71L7.25 10.21L8.66 8.79L10.75 10.88L15.34 6.3L16.75 7.71L10.75 13.71Z"/></svg>
